packages/sights/assets/overlays/eOkUJUBk.svg

<svg width="500" height="375" viewBox="0 0 500 375" fill="none" xmlns="http://www.w3.org/2000/svg">
<path d="M315.07 5L377.13 79.55" stroke="white" stroke-miterlimit="10"/>
<path d="M400.07 108.33C400.07 108.33 429.42 151.78 434.24 164.05C437.423 167.219 441.221 169.703 445.4 171.35L448.07 174.25" stroke="white" stroke-miterlimit="10"/>
<path d="M459.83 190.53C459.83 190.53 473.9 205.21 478.48 217.47C478.48 217.47 487.68 230.77 493 251.64" stroke="white" stroke-miterlimit="10"/>
<path d="M478.481 217.47C478.481 217.47 457.851 182.12 470.991 254.89L472.551 259.47C472.551 259.47 480.171 292.65 469.461 311.29C469.461 311.29 69.6411 176.29 22.8711 148.11C22.8711 148.11 79.2711 46.94 71.7111 5" stroke="white" stroke-miterlimit="10"/>
<path d="M45.2598 103.26L473.39 301.07" stroke="white" stroke-miterlimit="10"/>
<path d="M164.34 5V29L167.4 34.81L158.53 87.4C158.53 87.4 142.41 139.55 136.41 145.4" stroke="white" stroke-miterlimit="10"/>
<path d="M7 311.29L214.33 327.19L216.39 323.75C216.39 323.75 283.39 323.98 287.71 327.19L289.77 329.72C289.77 329.72 422.08 322.22 444.39 320.51" stroke="white" stroke-miterlimit="10"/>
<path d="M441.82 301.91C441.82 301.91 440.88 337.29 467.94 369.5" stroke="white" stroke-miterlimit="10"/>
<path d="M480.369 220.49C480.369 220.49 470.609 208.83 473.069 262.05" stroke="white" stroke-miterlimit="10"/>
<path d="M473.391 233.26L476.521 234.33C476.521 234.33 487.811 245.1 493.771 264.21" stroke="white" stroke-miterlimit="10"/>
<path d="M215.461 325.3C215.461 325.3 220.291 362.66 242.611 365.56H265.391C265.391 365.56 285.541 363.65 288.611 328.3" stroke="white" stroke-miterlimit="10"/>
<path d="M372.551 80.3106L374.231 86.1206L380.731 94.9906C380.731 94.9906 386.381 90.4006 388.831 92.5406C388.831 92.5406 396.391 99.0406 396.781 104.24C395.964 106.331 394.374 108.028 392.341 108.98C392.341 108.98 396.391 113.56 398.341 113.98C400.254 110.362 400.691 106.144 399.561 102.21C399.561 102.21 394.441 87.0006 383.561 81.5006C383.551 81.5406 378.201 78.1006 372.551 80.3106Z" stroke="white" stroke-miterlimit="10"/>
<path d="M394.15 98.3398C394.15 98.3398 390.43 99.4998 389.06 98.8098C389.06 98.8098 386.69 101.56 387.38 103.93L392.38 108.98" stroke="white" stroke-miterlimit="10"/>
<path d="M457.431 181.49C457.431 181.49 453.531 181.86 452.651 183.49L459.571 190.83C461.291 189.72 461.631 186.7 461.631 186.7C461.631 180.9 455.901 176.27 455.901 176.27C451.811 173.13 446.341 174.7 446.341 174.7C445.691 175.39 448.341 179.02 448.341 179.02C457.481 177.34 461.641 187.02 461.641 187.02" stroke="white" stroke-miterlimit="10"/>
<path d="M400.07 115.05C400.07 115.05 415.35 175.56 421.54 203.76L432.07 222.56" stroke="white" stroke-miterlimit="10"/>
<path d="M127.201 5L164.341 29C164.341 29 446.071 226.61 470.991 254.89" stroke="white" stroke-miterlimit="10"/>
</svg>

<svg width="500" height="375" fill="none" xmlns="http://www.w3.org/2000/svg"><path d="m315.07 5 62.06 74.55M400.07 108.33s29.35 43.45 34.17 55.72a32.93 32.93 0 0 0 11.16 7.3l2.67 2.9M459.83 190.53s14.07 14.68 18.65 26.94c0 0 9.2 13.3 14.52 34.17" stroke="#fff" stroke-miterlimit="10"/><path d="M478.481 217.47s-20.63-35.35-7.49 37.42l1.56 4.58s7.62 33.18-3.09 51.82c0 0-399.82-135-446.59-163.18 0 0 56.4-101.17 48.84-143.11M45.26 103.26l428.13 197.81" stroke="#fff" stroke-miterlimit="10"/><path d="M164.34 5v24l3.06 5.81-8.87 52.59s-16.12 52.15-22.12 58M7 311.29l207.33 15.9 2.06-3.44s67 .23 71.32 3.44l2.06 2.53s132.31-7.5 154.62-9.21" stroke="#fff" stroke-miterlimit="10"/><path d="M441.82 301.91s-.94 35.38 26.12 67.59M480.369 220.49s-9.76-11.66-7.3 41.56" stroke="#fff" stroke-miterlimit="10"/><path d="m473.391 233.26 3.13 1.07s11.29 10.77 17.25 29.88M215.461 325.3s4.83 37.36 27.15 40.26h22.78s20.15-1.91 23.22-37.26M372.551 80.31l1.68 5.81 6.5 8.87s5.65-4.59 8.1-2.45c0 0 7.56 6.5 7.95 11.7a8.751 8.751 0 0 1-4.44 4.74s4.05 4.58 6 5a15.83 15.83 0 0 0 1.22-11.77s-5.12-15.21-16-20.71c-.01.04-5.36-3.4-11.01-1.19Z" stroke="#fff" stroke-miterlimit="10"/><path d="M394.15 98.34s-3.72 1.16-5.09.47c0 0-2.37 2.75-1.68 5.12l5 5.05M457.431 181.49s-3.9.37-4.78 2l6.92 7.34c1.72-1.11 2.06-4.13 2.06-4.13 0-5.8-5.73-10.43-5.73-10.43-4.09-3.14-9.56-1.57-9.56-1.57-.65.69 2 4.32 2 4.32 9.14-1.68 13.3 8 13.3 8M400.07 115.05s15.28 60.51 21.47 88.71l10.53 18.8" stroke="#fff" stroke-miterlimit="10"/><path d="m127.201 5 37.14 24s281.73 197.61 306.65 225.89" stroke="#fff" stroke-miterlimit="10"/></svg>
